teamcog/public/images/TeamNameText.svg

<svg width="483" height="53" viewBox="0 0 483 53" fill="none" xmlns="http://www.w3.org/2000/svg">
<path d="M15.3254 41.4C14.5587 41.4 13.9587 41.1833 13.5254 40.75C13.0921 40.3167 12.8754 39.7 12.8754 38.9V5.05H3.27539C1.60872 5.05 0.775391 4.3 0.775391 2.8C0.775391 2.06667 0.992057 1.51667 1.42539 1.15C1.85872 0.749999 2.47539 0.549998 3.27539 0.549998H27.2754C28.0754 0.549998 28.6921 0.749999 29.1254 1.15C29.5587 1.51667 29.7754 2.06667 29.7754 2.8C29.7754 3.53333 29.5587 4.1 29.1254 4.5C28.6921 4.86666 28.0754 5.05 27.2754 5.05H17.7254V38.9C17.7254 39.7 17.5087 40.3167 17.0754 40.75C16.6754 41.1833 16.0921 41.4 15.3254 41.4ZM47.8949 41.45C45.1283 41.45 42.7116 40.8667 40.6449 39.7C38.6116 38.5 37.0449 36.8333 35.9449 34.7C34.8449 32.5667 34.2949 30.1 34.2949 27.3C34.2949 24.4333 34.8116 21.9333 35.8449 19.8C36.9116 17.6333 38.4116 15.9833 40.3449 14.85C42.2783 13.6833 44.5449 13.1 47.1449 13.1C49.6116 13.1 51.8449 13.7 53.8449 14.9C55.8449 16.1333 57.3783 17.8333 58.4449 20C59.5116 22.1667 59.9949 24.6 59.8949 27.3C59.8616 28 59.6283 28.55 59.1949 28.95C58.7949 29.3167 58.1949 29.5 57.3949 29.5H39.3949C39.7616 31.9667 40.6949 33.8667 42.1949 35.2C43.7283 36.5333 45.6449 37.2 47.9449 37.2C50.4783 37.2 52.5949 36.55 54.2949 35.25C54.8283 34.8167 55.4283 34.6 56.0949 34.6C56.6616 34.6 57.1449 34.8 57.5449 35.2C57.9449 35.6 58.1449 36.0833 58.1449 36.65C58.1449 37.35 57.8449 37.9833 57.2449 38.55C56.3116 39.3833 54.9783 40.0833 53.2449 40.65C51.5449 41.1833 49.7616 41.45 47.8949 41.45ZM54.7949 25.2C54.7283 22.9333 53.9783 21.0833 52.5449 19.65C51.1116 18.1833 49.3283 17.45 47.1949 17.45C44.9949 17.45 43.2283 18.1167 41.8949 19.45C40.5616 20.75 39.7116 22.6667 39.3449 25.2H54.7949ZM78.7043 41.45C76.2043 41.45 73.921 40.8167 71.8543 39.55C69.7543 38.2833 68.1043 36.5667 66.9043 34.4C65.7376 32.2333 65.1543 29.85 65.1543 27.25C65.1543 24.65 65.7543 22.2833 66.9543 20.15C68.1543 17.95 69.7876 16.2333 71.8543 15C73.9543 13.7333 76.2376 13.1 78.7043 13.1C82.271 13.1 85.1876 14.4 87.4543 17V15.8C87.4543 15 87.6543 14.3833 88.0543 13.95C88.4876 13.5167 89.1043 13.3 89.9043 13.3C90.671 13.3 91.2543 13.5167 91.6543 13.95C92.0876 14.3833 92.3043 15 92.3043 15.8V38.9C92.3043 39.7 92.0876 40.3167 91.6543 40.75C91.2543 41.1833 90.671 41.4 89.9043 41.4C89.1376 41.4 88.5376 41.1833 88.1043 40.75C87.671 40.3167 87.4543 39.7 87.4543 38.9V37.5C85.221 40.1333 82.3043 41.45 78.7043 41.45ZM78.7043 37.15C80.271 37.15 81.721 36.75 83.0543 35.95C84.3876 35.1167 85.4376 33.95 86.2043 32.45C87.0043 30.95 87.4043 29.2333 87.4043 27.3C87.4043 25.3667 87.0043 23.65 86.2043 22.15C85.4376 20.65 84.3876 19.5 83.0543 18.7C81.721 17.8667 80.271 17.45 78.7043 17.45C77.1043 17.45 75.6376 17.8833 74.3043 18.75C72.971 19.5833 71.921 20.75 71.1543 22.25C70.421 23.75 70.0543 25.4333 70.0543 27.3C70.0543 29.1667 70.421 30.85 71.1543 32.35C71.921 33.85 72.971 35.0333 74.3043 35.9C75.6376 36.7333 77.1043 37.15 78.7043 37.15ZM101.555 41.4C100.788 41.4 100.188 41.1833 99.7551 40.75C99.3217 40.3167 99.1051 39.7 99.1051 38.9V15.8C99.1051 15 99.3051 14.3833 99.7051 13.95C100.138 13.5167 100.755 13.3 101.555 13.3C102.322 13.3 102.905 13.5167 103.305 13.95C103.738 14.3833 103.955 15 103.955 15.8V16.9C105.788 14.3667 108.122 13.1 110.955 13.1C112.755 13.1 114.355 13.4667 115.755 14.2C117.155 14.9333 118.288 16.0167 119.155 17.45C120.155 16.05 121.388 14.9833 122.855 14.25C124.355 13.4833 125.972 13.1 127.705 13.1C130.872 13.1 133.405 14.2 135.305 16.4C137.238 18.5667 138.222 21.5667 138.255 25.4V38.9C138.255 39.7 138.038 40.3167 137.605 40.75C137.205 41.1833 136.622 41.4 135.855 41.4C135.088 41.4 134.488 41.1833 134.055 40.75C133.622 40.3167 133.405 39.7 133.405 38.9V25.55C133.405 22.8167 132.905 20.7833 131.905 19.45C130.938 18.1167 129.538 17.45 127.705 17.45C125.805 17.45 124.222 18.2 122.955 19.7C121.722 21.2 121.105 23.2333 121.105 25.8V38.9C121.105 39.7 120.888 40.3167 120.455 40.75C120.055 41.1833 119.472 41.4 118.705 41.4C117.938 41.4 117.338 41.1833 116.905 40.75C116.472 40.3167 116.255 39.7 116.255 38.9V25.55C116.255 22.8167 115.755 20.7833 114.755 19.45C113.788 18.1167 112.388 17.45 110.555 17.45C109.355 17.45 108.238 17.8167 107.205 18.55C106.205 19.2833 105.405 20.3167 104.805 21.65C104.238 22.9833 103.955 24.5333 103.955 26.3V38.9C103.955 39.7 103.738 40.3167 103.305 40.75C102.905 41.1833 102.322 41.4 101.555 41.4ZM165.113 41.5C162.213 41.5 160.113 40.8333 158.813 39.5C157.546 38.1667 156.913 36 156.913 33V5C156.913 3.36667 157.23 2.21667 157.863 1.55C158.53 0.849998 159.696 0.499999 161.363 0.499999H171.713C174.313 0.499999 176.613 0.983332 178.613 1.95C180.646 2.88333 182.213 4.2 183.313 5.9C184.413 7.56666 184.963 9.48333 184.963 11.65C184.963 13.4167 184.513 15.0167 183.613 16.45C182.746 17.8833 181.563 18.9667 180.063 19.7C182.463 20.6 184.28 21.9667 185.513 23.8C186.78 25.6 187.413 27.7167 187.413 30.15C187.413 32.35 186.846 34.3167 185.713 36.05C184.58 37.75 182.963 39.0833 180.863 40.05C178.796 41.0167 176.396 41.5 173.663 41.5H165.113ZM163.663 32.8C163.663 33.7333 163.896 34.4167 164.363 34.85C164.83 35.2833 165.546 35.5 166.513 35.5H174.163C176.13 35.5 177.696 34.9667 178.863 33.9C180.063 32.8 180.663 31.3667 180.663 29.6C180.663 27.8333 180.013 26.4 178.713 25.3C177.446 24.2 175.763 23.65 173.663 23.65H163.663V32.8ZM172.213 17.75C174.08 17.75 175.546 17.25 176.613 16.25C177.68 15.2167 178.213 13.8333 178.213 12.1C178.213 10.3667 177.663 9 176.563 8C175.496 7 174.046 6.5 172.213 6.5H164.913C164.48 6.5 164.163 6.6 163.963 6.8C163.763 6.96666 163.663 7.28333 163.663 7.75V17.75H172.213ZM200.611 41.5C197.711 41.5 195.611 40.8333 194.311 39.5C193.044 38.1667 192.411 36 192.411 33V5C192.411 3.36667 192.728 2.21667 193.361 1.55C194.028 0.849998 195.194 0.499999 196.861 0.499999H207.211C209.811 0.499999 212.111 0.983332 214.111 1.95C216.144 2.88333 217.711 4.2 218.811 5.9C219.911 7.56666 220.461 9.48333 220.461 11.65C220.461 13.4167 220.011 15.0167 219.111 16.45C218.244 17.8833 217.061 18.9667 215.561 19.7C217.961 20.6 219.778 21.9667 221.011 23.8C222.278 25.6 222.911 27.7167 222.911 30.15C222.911 32.35 222.344 34.3167 221.211 36.05C220.078 37.75 218.461 39.0833 216.361 40.05C214.294 41.0167 211.894 41.5 209.161 41.5H200.611ZM199.161 32.8C199.161 33.7333 199.394 34.4167 199.861 34.85C200.328 35.2833 201.044 35.5 202.011 35.5H209.661C211.628 35.5 213.194 34.9667 214.361 33.9C215.561 32.8 216.161 31.3667 216.161 29.6C216.161 27.8333 215.511 26.4 214.211 25.3C212.944 24.2 211.261 23.65 209.161 23.65H199.161V32.8ZM207.711 17.75C209.578 17.75 211.044 17.25 212.111 16.25C213.178 15.2167 213.711 13.8333 213.711 12.1C213.711 10.3667 213.161 9 212.061 8C210.994 7 209.544 6.5 207.711 6.5H200.411C199.978 6.5 199.661 6.6 199.461 6.8C199.261 6.96666 199.161 7.28333 199.161 7.75V17.75H207.711ZM257.071 41.9C253.537 41.9 250.454 41.0333 247.821 39.3C245.154 37.5667 243.087 35.1167 241.621 31.95C240.154 28.7833 239.421 25.1333 239.421 21C239.421 16.9 240.154 13.25 241.621 10.05C243.087 6.85 245.154 4.4 247.821 2.7C250.487 0.966664 253.571 0.099998 257.071 0.099998C259.004 0.099998 260.904 0.416665 262.771 1.05C264.637 1.65 266.237 2.46666 267.571 3.5C268.404 4.13333 268.821 4.91667 268.821 5.85C268.821 6.41667 268.587 7.03333 268.121 7.7C267.421 8.53333 266.604 8.95 265.671 8.95C265.071 8.95 264.487 8.76666 263.921 8.4C261.787 6.86666 259.504 6.1 257.071 6.1C254.937 6.1 253.037 6.71666 251.371 7.95C249.737 9.18333 248.454 10.9333 247.521 13.2C246.621 15.4667 246.171 18.1167 246.171 21.15C246.171 24.1167 246.621 26.7167 247.521 28.95C248.454 31.1833 249.737 32.9 251.371 34.1C253.037 35.3 254.937 35.9 257.071 35.9C258.571 35.9 259.921 35.7167 261.121 35.35C262.321 34.95 263.471 34.3333 264.571 33.5C265.237 33 265.937 32.75 266.671 32.75C267.504 32.75 268.237 33.1 268.871 33.8C269.471 34.4 269.771 35.0833 269.771 35.85C269.771 36.8167 269.304 37.6667 268.371 38.4C267.004 39.5333 265.354 40.4 263.421 41C261.487 41.6 259.371 41.9 257.071 41.9ZM288.736 41.9C285.97 41.9 283.453 41.2667 281.186 40C278.92 38.7 277.153 36.9333 275.886 34.7C274.62 32.4667 273.986 29.9667 273.986 27.2C273.986 24.3667 274.62 21.85 275.886 19.65C277.153 17.4167 278.903 15.6833 281.136 14.45C283.37 13.1833 285.903 12.55 288.736 12.55C291.57 12.55 294.103 13.1833 296.336 14.45C298.57 15.6833 300.32 17.4167 301.586 19.65C302.853 21.85 303.486 24.3667 303.486 27.2C303.486 29.9667 302.853 32.4833 301.586 34.75C300.286 36.9833 298.503 38.7333 296.236 40C294.003 41.2667 291.503 41.9 288.736 41.9ZM280.736 27.25C280.736 28.8833 281.07 30.3667 281.736 31.7C282.436 33 283.386 34.0333 284.586 34.8C285.82 35.5333 287.203 35.9 288.736 35.9C290.27 35.9 291.636 35.5333 292.836 34.8C294.07 34.0333 295.02 33 295.686 31.7C296.386 30.3667 296.736 28.8833 296.736 27.25C296.736 25.55 296.386 24.0333 295.686 22.7C294.986 21.3667 294.02 20.35 292.786 19.65C291.586 18.9167 290.236 18.55 288.736 18.55C287.236 18.55 285.87 18.9167 284.636 19.65C283.436 20.35 282.486 21.3667 281.786 22.7C281.086 24.0333 280.736 25.55 280.736 27.25ZM312.458 41.7C311.491 41.7 310.708 41.4333 310.108 40.9C309.508 40.3667 309.208 39.6333 309.208 38.7V15.8C309.208 14.8667 309.508 14.1333 310.108 13.6C310.708 13.0667 311.491 12.8 312.458 12.8H312.708C313.641 12.8 314.408 13.05 315.008 13.55C315.641 14.0167 315.958 14.6 315.958 15.3V15.35C318.124 13.4833 320.474 12.55 323.008 12.55C324.708 12.55 326.208 12.95 327.508 13.75C328.841 14.55 329.924 15.7 330.758 17.2C331.891 15.7 333.224 14.55 334.758 13.75C336.324 12.95 337.958 12.55 339.658 12.55C342.658 12.55 345.008 13.7333 346.708 16.1C348.408 18.4667 349.258 21.7667 349.258 26V38.7C349.258 39.6333 348.958 40.3667 348.358 40.9C347.758 41.4333 346.974 41.7 346.008 41.7H345.758C344.791 41.7 344.008 41.4333 343.408 40.9C342.808 40.3667 342.508 39.6333 342.508 38.7V26.85C342.508 21.3167 341.058 18.55 338.158 18.55C336.691 18.55 335.424 19.1667 334.358 20.4C333.291 21.6 332.708 23.2167 332.608 25.25V38.7C332.608 39.6333 332.308 40.3667 331.708 40.9C331.108 41.4333 330.324 41.7 329.358 41.7H329.108C328.141 41.7 327.358 41.4333 326.758 40.9C326.158 40.3667 325.858 39.6333 325.858 38.7V26.85C325.858 21.3167 324.408 18.55 321.508 18.55C320.074 18.55 318.808 19.2 317.708 20.5C316.641 21.7667 316.058 23.4333 315.958 25.5V38.7C315.958 39.6333 315.658 40.3667 315.058 40.9C314.458 41.4333 313.674 41.7 312.708 41.7H312.458ZM358.698 51.7C357.731 51.7 356.948 51.4333 356.348 50.9C355.748 50.3667 355.448 49.6333 355.448 48.7V15.8C355.448 14.8667 355.748 14.1333 356.348 13.6C356.948 13.0667 357.731 12.8 358.698 12.8H358.948C359.881 12.8 360.648 13.05 361.248 13.55C361.881 14.0167 362.198 14.6 362.198 15.3V15.75C364.431 13.6167 367.148 12.55 370.348 12.55C372.948 12.55 375.281 13.1833 377.348 14.45C379.415 15.6833 381.031 17.4167 382.198 19.65C383.365 21.8833 383.948 24.4 383.948 27.2C383.948 30 383.365 32.5167 382.198 34.75C381.031 36.9833 379.415 38.7333 377.348 40C375.281 41.2667 372.948 41.9 370.348 41.9C367.148 41.9 364.431 40.8333 362.198 38.7V48.7C362.198 49.6333 361.898 50.3667 361.298 50.9C360.698 51.4333 359.915 51.7 358.948 51.7H358.698ZM362.198 27.25C362.198 28.8833 362.515 30.3667 363.148 31.7C363.815 33 364.715 34.0333 365.848 34.8C366.981 35.5333 368.265 35.9 369.698 35.9C371.131 35.9 372.415 35.5333 373.548 34.8C374.681 34.0333 375.565 33 376.198 31.7C376.865 30.3667 377.198 28.8833 377.198 27.25C377.198 25.5833 376.865 24.1 376.198 22.8C375.565 21.4667 374.681 20.4333 373.548 19.7C372.415 18.9333 371.131 18.55 369.698 18.55C368.265 18.55 366.981 18.9333 365.848 19.7C364.715 20.4333 363.815 21.4667 363.148 22.8C362.515 24.1 362.198 25.5833 362.198 27.25ZM402.528 41.9C399.928 41.9 397.594 41.2667 395.528 40C393.461 38.7333 391.844 36.9833 390.678 34.75C389.511 32.5167 388.928 30 388.928 27.2C388.928 24.4 389.511 21.8833 390.678 19.65C391.844 17.4167 393.461 15.6833 395.528 14.45C397.594 13.1833 399.928 12.55 402.528 12.55C405.728 12.55 408.444 13.6167 410.678 15.75V15.3C410.678 14.6 410.978 14.0167 411.578 13.55C412.211 13.05 412.994 12.8 413.928 12.8H414.178C415.144 12.8 415.928 13.0667 416.528 13.6C417.128 14.1333 417.428 14.8667 417.428 15.8V38.7C417.428 39.6333 417.128 40.3667 416.528 40.9C415.928 41.4333 415.144 41.7 414.178 41.7H413.928C412.994 41.7 412.211 41.4667 411.578 41C410.978 40.5 410.678 39.9 410.678 39.2V38.7C408.444 40.8333 405.728 41.9 402.528 41.9ZM395.678 27.25C395.678 28.8833 395.994 30.3667 396.628 31.7C397.294 33 398.194 34.0333 399.328 34.8C400.461 35.5333 401.744 35.9 403.178 35.9C404.611 35.9 405.894 35.5333 407.028 34.8C408.161 34.0333 409.044 33 409.678 31.7C410.344 30.3667 410.678 28.8833 410.678 27.25C410.678 25.5833 410.344 24.1 409.678 22.8C409.044 21.4667 408.161 20.4333 407.028 19.7C405.894 18.9333 404.611 18.55 403.178 18.55C401.744 18.55 400.461 18.9333 399.328 19.7C398.194 20.4333 397.294 21.4667 396.628 22.8C395.994 24.1 395.678 25.5833 395.678 27.25ZM426.96 41.7C425.993 41.7 425.21 41.4333 424.61 40.9C424.01 40.3667 423.71 39.6333 423.71 38.7V15.8C423.71 14.8667 424.01 14.1333 424.61 13.6C425.21 13.0667 425.993 12.8 426.96 12.8H427.21C428.143 12.8 428.91 13.05 429.51 13.55C430.143 14.0167 430.46 14.6 430.46 15.3V15.45C432.626 13.5167 435.143 12.55 438.01 12.55C441.71 12.55 444.61 13.7833 446.71 16.25C448.843 18.6833 449.91 22.1 449.91 26.5V38.7C449.91 39.6333 449.61 40.3667 449.01 40.9C448.41 41.4333 447.626 41.7 446.66 41.7H446.41C445.443 41.7 444.66 41.4333 444.06 40.9C443.46 40.3667 443.16 39.6333 443.16 38.7V27.35C443.16 24.45 442.626 22.2667 441.56 20.8C440.526 19.3 439.01 18.55 437.01 18.55C435.176 18.55 433.66 19.1667 432.46 20.4C431.26 21.6333 430.593 23.3333 430.46 25.5V38.7C430.46 39.6333 430.16 40.3667 429.56 40.9C428.96 41.4333 428.176 41.7 427.21 41.7H426.96ZM460.632 52.35C458.032 52.35 455.865 51.3667 454.132 49.4C453.598 48.7667 453.332 48.1167 453.332 47.45C453.332 46.6833 453.682 45.95 454.382 45.25C455.048 44.5833 455.782 44.25 456.582 44.25C457.315 44.25 457.965 44.5333 458.532 45.1C458.998 45.5667 459.415 45.8833 459.782 46.05C460.182 46.25 460.598 46.35 461.032 46.35C461.565 46.3167 462.032 46.0833 462.432 45.65C462.865 45.2167 463.282 44.5667 463.682 43.7C464.082 42.8333 464.648 41.4833 465.382 39.65L454.582 17.3C454.348 16.8667 454.232 16.4 454.232 15.9C454.232 15.2667 454.432 14.7 454.832 14.2C455.265 13.6667 455.848 13.2667 456.582 13C456.882 12.8667 457.282 12.8 457.782 12.8C458.448 12.8 459.048 13 459.582 13.4C460.148 13.7667 460.582 14.2833 460.882 14.95L468.782 31.95L475.432 15C475.665 14.3667 476.065 13.85 476.632 13.45C477.232 13.0167 477.882 12.8 478.582 12.8C478.882 12.8 479.315 12.8833 479.882 13.05C480.582 13.3167 481.115 13.7 481.482 14.2C481.882 14.7 482.082 15.2667 482.082 15.9C482.082 16.3667 481.982 16.8333 481.782 17.3L471.832 40.85C470.632 43.7167 469.548 45.9333 468.582 47.5C467.582 49.1333 466.448 50.35 465.182 51.15C463.915 51.95 462.398 52.35 460.632 52.35Z" fill="white"/>
</svg>

<svg xmlns="http://www.w3.org/2000/svg" width="483" height="53" fill="none" viewBox="0 0 483 53"><path fill="#fff" d="M15.325 41.4q-1.149 0-1.8-.65-.65-.65-.65-1.85V5.05h-9.6q-2.5 0-2.5-2.25 0-1.1.65-1.65.65-.6 1.85-.6h24q1.2 0 1.85.6.65.55.65 1.65t-.65 1.7q-.65.55-1.85.55h-9.55V38.9q0 1.2-.65 1.85-.6.65-1.75.65m32.57.05q-4.15 0-7.25-1.75-3.05-1.8-4.7-5t-1.65-7.4q0-4.3 1.55-7.5 1.6-3.25 4.5-4.95 2.9-1.75 6.8-1.75 3.7 0 6.7 1.8 3 1.85 4.6 5.1t1.45 7.3q-.05 1.05-.7 1.65-.6.55-1.8.55h-18q.55 3.7 2.8 5.7 2.3 2 5.75 2 3.8 0 6.35-1.95a2.78 2.78 0 0 1 1.8-.65q.85 0 1.45.6t.6 1.45q0 1.05-.9 1.9-1.4 1.25-4 2.1-2.55.8-5.35.8m6.9-16.25q-.1-3.4-2.25-5.55-2.15-2.2-5.35-2.2-3.3 0-5.3 2-2 1.95-2.55 5.75zm23.91 16.25q-3.75 0-6.85-1.9a13.6 13.6 0 0 1-4.95-5.15q-1.75-3.25-1.75-7.15t1.8-7.1q1.8-3.3 4.9-5.15 3.15-1.9 6.85-1.9 5.35 0 8.75 3.9v-1.2q0-1.2.6-1.85.65-.65 1.85-.65 1.15 0 1.75.65.65.65.65 1.85v23.1q0 1.2-.65 1.85-.6.65-1.75.65t-1.8-.65-.65-1.85v-1.4q-3.35 3.95-8.75 3.95m0-4.3q2.349 0 4.35-1.2 2-1.25 3.15-3.5 1.2-2.25 1.2-5.15t-1.2-5.15q-1.15-2.25-3.15-3.45a8.05 8.05 0 0 0-4.35-1.25q-2.4 0-4.4 1.3-2.001 1.25-3.15 3.5-1.1 2.25-1.1 5.05t1.1 5.05q1.149 2.25 3.15 3.55a8.14 8.14 0 0 0 4.4 1.25m22.85 4.25q-1.15 0-1.8-.65t-.65-1.85V15.8q0-1.2.6-1.85.65-.65 1.85-.65 1.15 0 1.75.65.65.65.65 1.85v1.1q2.75-3.8 7-3.8 2.7 0 4.8 1.1t3.4 3.25q1.5-2.1 3.7-3.2 2.25-1.15 4.85-1.15 4.75 0 7.6 3.3 2.9 3.25 2.95 9v13.5q0 1.2-.65 1.85-.6.65-1.75.65t-1.8-.65-.65-1.85V25.55q0-4.1-1.5-6.1-1.45-2-4.2-2-2.85 0-4.75 2.25-1.85 2.25-1.85 6.1v13.1q0 1.2-.65 1.85-.6.65-1.75.65t-1.8-.65-.65-1.85V25.55q0-4.1-1.5-6.1-1.45-2-4.2-2-1.8 0-3.35 1.1-1.5 1.1-2.4 3.1-.85 2-.85 4.65v12.6q0 1.2-.65 1.85-.6.65-1.75.65m63.558.1q-4.35 0-6.3-2-1.9-2-1.9-6.5V5q0-2.45.95-3.45 1-1.05 3.5-1.05h10.35q3.9 0 6.9 1.45 3.05 1.4 4.7 3.95 1.65 2.5 1.65 5.75 0 2.65-1.35 4.8a8.36 8.36 0 0 1-3.55 3.25q3.6 1.35 5.45 4.1 1.9 2.7 1.9 6.35 0 3.3-1.7 5.9-1.7 2.55-4.85 4-3.1 1.45-7.2 1.45zm-1.45-8.7q0 1.4.7 2.05t2.15.65h7.65q2.95 0 4.7-1.6 1.8-1.65 1.8-4.3t-1.95-4.3q-1.9-1.65-5.05-1.65h-10zm8.55-15.05q2.8 0 4.4-1.5 1.6-1.55 1.6-4.15t-1.65-4.1q-1.6-1.5-4.35-1.5h-7.3q-.65 0-.95.3-.3.25-.3.95v10zm28.398 23.75q-4.35 0-6.3-2-1.9-2-1.9-6.5V5q0-2.45.95-3.45 1-1.05 3.5-1.05h10.35q3.9 0 6.9 1.45 3.05 1.4 4.7 3.95 1.65 2.5 1.65 5.75 0 2.65-1.35 4.8a8.36 8.36 0 0 1-3.55 3.25q3.6 1.35 5.45 4.1 1.9 2.7 1.9 6.35 0 3.3-1.7 5.9-1.7 2.55-4.85 4-3.1 1.45-7.2 1.45zm-1.45-8.7q0 1.4.7 2.05t2.15.65h7.65q2.95 0 4.7-1.6 1.8-1.65 1.8-4.3t-1.95-4.3q-1.9-1.65-5.05-1.65h-10zm8.55-15.05q2.8 0 4.4-1.5 1.6-1.55 1.6-4.15t-1.65-4.1q-1.6-1.5-4.35-1.5h-7.3q-.65 0-.95.3-.3.25-.3.95v10zm49.36 24.15q-5.3 0-9.25-2.6-4-2.6-6.2-7.35t-2.2-10.95q0-6.15 2.2-10.95t6.2-7.35q4-2.6 9.25-2.6 2.9 0 5.7.95 2.799.9 4.8 2.45 1.25.95 1.25 2.35 0 .85-.7 1.85-1.05 1.25-2.45 1.25-.9 0-1.75-.55-3.2-2.3-6.85-2.3-3.201 0-5.7 1.85-2.45 1.85-3.85 5.25-1.35 3.4-1.35 7.95 0 4.45 1.35 7.8 1.4 3.35 3.85 5.15 2.499 1.8 5.7 1.8 2.25 0 4.05-.55 1.8-.6 3.45-1.85.999-.75 2.1-.75 1.25 0 2.2 1.05.9.9.9 2.05 0 1.45-1.4 2.55-2.05 1.7-4.95 2.6t-6.35.9m31.665 0q-4.15 0-7.55-1.9-3.4-1.95-5.3-5.3t-1.9-7.5q0-4.25 1.9-7.55 1.9-3.35 5.25-5.2 3.35-1.9 7.6-1.9t7.6 1.9q3.351 1.85 5.25 5.2 1.9 3.3 1.9 7.55 0 4.15-1.9 7.55a13.96 13.96 0 0 1-5.35 5.25q-3.35 1.9-7.5 1.9m-8-14.65q0 2.45 1 4.45 1.05 1.95 2.85 3.1 1.85 1.1 4.15 1.1t4.1-1.1a7.73 7.73 0 0 0 2.85-3.1q1.05-2 1.05-4.45 0-2.55-1.05-4.55t-2.9-3.05q-1.8-1.1-4.05-1.1t-4.1 1.1q-1.8 1.05-2.85 3.05t-1.05 4.55m31.722 14.45q-1.45 0-2.35-.8t-.9-2.2V15.8q0-1.4.9-2.2t2.35-.8h.25q1.4 0 2.3.75.95.7.95 1.75v.05q3.249-2.8 7.05-2.8 2.55 0 4.5 1.2 2 1.2 3.25 3.45 1.7-2.25 4-3.45 2.35-1.2 4.9-1.2 4.5 0 7.05 3.55t2.55 9.9v12.7q0 1.4-.9 2.2t-2.35.8h-.25q-1.45 0-2.35-.8t-.9-2.2V26.85q0-8.3-4.35-8.3-2.2 0-3.8 1.85-1.6 1.8-1.75 4.85V38.7q0 1.4-.9 2.2t-2.35.8h-.25q-1.45 0-2.35-.8t-.9-2.2V26.85q0-8.3-4.35-8.3-2.15 0-3.8 1.95-1.6 1.9-1.75 5v13.2q0 1.4-.9 2.2t-2.35.8zm46.24 10q-1.45 0-2.35-.8t-.9-2.2V15.8q0-1.4.9-2.2t2.35-.8h.25q1.4 0 2.3.75.95.7.95 1.75v.45q3.35-3.2 8.15-3.2 3.9 0 7 1.9 3.1 1.85 4.85 5.2t1.75 7.55-1.75 7.55-4.85 5.25-7 1.9q-4.8 0-8.15-3.2v10q0 1.4-.9 2.2t-2.35.8zm3.5-24.45q0 2.45.95 4.45 1 1.95 2.7 3.1 1.7 1.1 3.85 1.1t3.85-1.1q1.7-1.15 2.65-3.1 1-2 1-4.45 0-2.5-1-4.45-.95-2-2.65-3.1-1.7-1.15-3.85-1.15t-3.85 1.15q-1.7 1.1-2.7 3.1-.95 1.95-.95 4.45m40.33 14.65q-3.9 0-7-1.9t-4.85-5.25-1.75-7.55 1.75-7.55 4.85-5.2q3.1-1.9 7-1.9 4.8 0 8.15 3.2v-.45q0-1.05.9-1.75.95-.75 2.35-.75h.25q1.45 0 2.35.8t.9 2.2v22.9q0 1.4-.9 2.2t-2.35.8h-.25q-1.4 0-2.35-.7-.9-.75-.9-1.8v-.5q-3.35 3.2-8.15 3.2m-6.85-14.65q0 2.45.95 4.45.999 1.95 2.7 3.1 1.7 1.1 3.85 1.1t3.85-1.1q1.7-1.15 2.65-3.1 1-2 1-4.45 0-2.5-1-4.45-.95-2-2.65-3.1-1.7-1.15-3.85-1.15t-3.85 1.15q-1.701 1.1-2.7 3.1-.95 1.95-.95 4.45M426.96 41.7q-1.45 0-2.35-.8t-.9-2.2V15.8q0-1.4.9-2.2t2.35-.8h.25q1.4 0 2.3.75.95.7.95 1.75v.15q3.25-2.9 7.55-2.9 5.55 0 8.7 3.7 3.2 3.65 3.2 10.25v12.2q0 1.4-.9 2.2t-2.35.8h-.25q-1.45 0-2.35-.8t-.9-2.2V27.35q0-4.35-1.6-6.55-1.55-2.25-4.55-2.25-2.75 0-4.55 1.85t-2 5.1v13.2q0 1.4-.9 2.2t-2.35.8zm33.672 10.65q-3.9 0-6.5-2.95-.8-.95-.8-1.95 0-1.15 1.05-2.2 1-1 2.2-1 1.1 0 1.95.85.7.7 1.25.95.6.3 1.25.3.8-.05 1.4-.7.65-.65 1.25-1.95t1.7-4.05l-10.8-22.35a2.9 2.9 0 0 1-.35-1.4q0-.95.6-1.7.65-.8 1.75-1.2.45-.2 1.2-.2.999 0 1.8.6.85.55 1.3 1.55l7.9 17 6.65-16.95a3.22 3.22 0 0 1 1.2-1.55q.9-.65 1.95-.65.45 0 1.3.25 1.05.4 1.6 1.15.6.75.6 1.7 0 .7-.3 1.4l-9.95 23.55q-1.8 4.3-3.25 6.65-1.5 2.45-3.4 3.65t-4.55 1.2"/></svg>
